X: 21
T:Robinson County
M:C|
L:1/8
K:D
dB|"D" A2 f2 fgfe|"G"d2 B2 BcdB|"D"A2 f2 fgfe|d4 dB|!
"G"A2 f2 fgfd|"G"d2B2 BcdB|"A"A2 F2 E2 FD|"D" D4:|!
"D"AB A2 F2 F2|AB A2 F2 F2|AB A2  F2 E2|"A" D2 E6|!
"D"AB A2 F2 F2|AB A2 F2 F2|AB A2F2 "A" E2 FD|"D"D4:
